X:1
T:Title
%%score { 1 | 2 }
L:1/8
Q:1/4=100
M:4/4
K:Bb
V:1 treble nm="Grand Piano"
V:2 bass 
V:1
 [DF]>[CE] [B,D]>[CE] [DF]2 [DB]>[DB] | [Fd]2 [FB]2 [GB]2 [EG]2 | [DF]2 [DB]2 [Fd]2 [DFB]2 | %3
w: E.~Roberts * * * * * *|||
 [CFA]2 [B,=EG]2 [A,F]4 | [DF]>[CE] [B,D]>[CE] [DF]2 [DB]2 | [Fd]2 [FB]2 [GB]2 [EG]2 | %6
w: |||
 [DF]2 [Fd]2 [Fd]2 c2 | B2 A2 [DB]4 | [Fd]3 [Fc] [GB]>[^FA] [GB]>[EG] | [DF]4 [DB]4 | c3 d e2 d2 | %11
w: |||||
 c6 z2 | [Fd]3 [Fc] [GB]>[^FA] [GB]>[EG] | [DF]4 [DB]4 | A3 B c2 d2 | [DB]6 z2 |] %16
w: |||||
V:2
 [B,,B,]>[B,,B,] [B,,F,]>[B,,B,] [B,,B,]2 [B,,B,]>[B,,B,] | [B,,B,]2 [D,B,]2 [E,B,]2 [E,B,]2 | %2
 [B,,B,]2 [B,,B,]2 [B,,B,]2 B,,2 | C,2 C,2 F,4 | %4
 [B,,B,]>[B,,B,] [B,,F,]>[B,,B,] [B,,B,]2 [B,,B,]2 | [B,,B,]2 [D,B,]2 [E,B,]2 [E,B,]2 | %6
 [B,,B,]2 [B,,B,]2 [B,,B,]2 [E,G,E]2 | [F,D]2 [F,C]2 [B,,F,]4 | [B,,B,]3 [D,B,] [E,B,]2 [E,B,]2 | %9
 [B,,B,]4 [B,,F,]4 | [F,A,F]3 [B,F] [A,CF]2 [B,F]2 | [F,A,F]6 z2 | %12
 [B,,B,]3 [D,B,] [E,B,]2 [E,B,]2 | [B,,B,]4 [B,,F,]4 | [F,C]3 [F,D] [F,E]2 [F,F]2 | [B,,F,]6 z2 |] %16

